X:77
T:Paynes 1st Set Of Quadrilles No.2. Le4.077
B:L.Leadley MS#4 c1850
Z:Village Music Project, 2016 Steve Mansfield
M:2/4
L:1/8
Q:2/4=60
N:* Rest inserted by transcriber
K:G
"*"z d/g/ | fdee | d2ce | BdAc | BGdg |
fdee | d2(c/d/e/c/) | Bd cA | G2 :|
Be | e/d/c/B/ e/f/g/a/ | dB bb/g/ | aa/f/ gg/e/ | B2 bb |
g2 aa | f2 (a/g/f/g/) | eg fd | e2 |]

